src/components/Icon/svg-icon/main/attach.svg

<svg xmlns="http://www.w3.org/2000/svg" width="24" height="24"><path fill="#677078" d="M16.5 6v11.5c0 2.21-1.79 4-4 4s-4-1.79-4-4V5a2.5 2.5 0 015 0v10.5c0 .55-.45 1-1 1s-1-.45-1-1V6H10v9.5a2.5 2.5 0 005 0V5c0-2.21-1.79-4-4-4S7 2.79 7 5v12.5c0 3.04 2.46 5.5 5.5 5.5s5.5-2.46 5.5-5.5V6h-1.5z"/></svg>

<svg xmlns="http://www.w3.org/2000/svg" width="24" height="24" viewBox="0 0 24 24">
  <path fill="#677078" d="M16.5,6 L16.5,17.5 C16.5,19.71 14.71,21.5 12.5,21.5 C10.29,21.5 8.5,19.71 8.5,17.5 L8.5,5 C8.5,3.62 9.62,2.5 11,2.5 C12.38,2.5 13.5,3.62 13.5,5 L13.5,15.5 C13.5,16.05 13.05,16.5 12.5,16.5 C11.95,16.5 11.5,16.05 11.5,15.5 L11.5,6 L10,6 L10,15.5 C10,16.88 11.12,18 12.5,18 C13.88,18 15,16.88 15,15.5 L15,5 C15,2.79 13.21,1 11,1 C8.79,1 7,2.79 7,5 L7,17.5 C7,20.54 9.46,23 12.5,23 C15.54,23 18,20.54 18,17.5 L18,6 L16.5,6 Z"/>
</svg>
